public/logos/logo.svg

<svg width="58" height="59" viewBox="0 0 58 59" fill="none" xmlns="http://www.w3.org/2000/svg">
<path d="M15.8596 8.02734H7.93164V16.0511H15.8596V8.02734Z" fill="#D82E11"/>
<path d="M49.5805 42.1562V50.18H33.7188L41.6468 42.1562H49.5776H49.5805Z" fill="#D82E11"/>
<path d="M49.5814 8.02734V42.1565H41.6505V16.051H15.8594V8.02734H49.5814Z" fill="#9E1B1E"/>
<path d="M57.5123 0V42.1557H49.5814V8.02662H15.8594V0H57.5123Z" fill="#D82E11"/>
<path d="M33.7192 50.1828L25.7912 58.2065H0V16.0508H7.928V50.1799H33.7192V50.1828Z" fill="#D82E11"/>
<path d="M41.6498 42.1562L33.7218 50.1799H7.92773V16.0508H15.8557V42.1562H41.6469H41.6498Z" fill="#9E1B1E"/>
<path d="M41.6525 16.0508V42.1533H15.8613V16.0508H41.6554H41.6525Z" fill="#590D0F"/>
</svg>

<svg xmlns="http://www.w3.org/2000/svg" width="58" height="59" fill="none"><path fill="#D82E11" d="M15.86 8.027H7.932v8.024h7.928zM49.58 42.156v8.024H33.72l7.928-8.024h7.933999999999999"/><path fill="#9E1B1E" d="M49.581 8.027v34.13h-7.93V16.05H15.859V8.027z"/><path fill="#D82E11" d="M57.512 0v42.156h-7.93V8.026H15.858V0zM33.72 50.183l-7.929 8.023H0V16.051h7.928V50.18h25.791z"/><path fill="#9E1B1E" d="m41.65 42.156-7.928 8.024H7.928V16.05h7.928v26.106H41.65"/><path fill="#590D0F" d="M41.653 16.05v26.103H15.86V16.051h25.794z"/></svg>
